icons/eraser-fill.svg

<svg viewBox="0 0 24 24" fill="currentColor" xmlns="http://www.w3.org/2000/svg"><path d="M13.9999 18.9966H20.9999V20.9966H11.9999L8.00229 20.9991L1.51457 14.5113C1.12405 14.1208 1.12405 13.4877 1.51457 13.0971L12.1212 2.49053C12.5117 2.1 13.1449 2.1 13.5354 2.49053L21.3136 10.2687C21.7041 10.6592 21.7041 11.2924 21.3136 11.6829L13.9999 18.9966ZM15.6567 14.5113L19.1922 10.9758L12.8283 4.61185L9.29275 8.14738L15.6567 14.5113Z"/></svg>

<svg xmlns="http://www.w3.org/2000/svg" viewBox="0 0 24 24">
    <g>
        <path fill="none" d="M0 0h24v24H0z"/>
        <path d="M14 19h7v2h-9l-3.998.002-6.487-6.487a1 1 0 0 1 0-1.414L12.12 2.494a1 1 0 0 1 1.415 0l7.778 7.778a1 1 0 0 1 0 1.414L14 19zm1.657-4.485l3.535-3.536-6.364-6.364-3.535 3.536 6.364 6.364z"/>
    </g>
</svg>
